X:1
T:An Irish Ballad
T:An Irish Ballad
T:Arthur Weld Op. 87, N° 1
T:Frederick Truesdell 
T:And her eyes were blue and full of sunlit laughter, And her cheeks had all the glow that lingers after On the ev'ning sea and sky, when the day begins to die, And my heart leap'd oh, like firelight on the rafter. Then I said if you will ride thro' all the morning by my side, So she chance the high-ways ups and downs to gether, And no matter where we roam, you will forever find a home Within the heart that's yours in ev'ry kind of weather. Then she shook her curls, the minx, she was knowing Just to make me fear she had no thought of going, And she said your step's too hight for the likes of such as I, And my time her dainty ankles she was showing. But I cried do not delay, I do not often pass this way, So she whispers "Sir, 'tis better now than never, There's at least a priest a mile all thro' our dainty Emerald Isle, I'll ride with you, my love, for ever and for ever.
T:by IMSLP - Pubblico dominio
T:by IMSLP - Pubblico dominio
T:by IMSLP - Pubblico dominio
T:by IMSLP - Pubblico dominio
C:Arthur Weld Op. 87, N° 1
Z:Frederick Truesdell
Z:by IMSLP - Pubblico dominio
%%score 1 { ( 2 4 6 ) | ( 3 5 ) }
L:1/8
Q:1/4=68
M:4/4
K:F
V:1 treble nm="Voice"
V:2 treble nm="Piano"
V:4 treble 
V:6 treble 
V:3 bass 
V:5 bass 
V:1
"^Moderato, molto rubato" z2 | z8 | z4 z2 F G | A c d3/2 c/ (A G) F E | D2 C2 z2 F G | %5
w: ||I was|driv\- ing thro' the coun\- ty Tip\- per\-|rar\- ry, When I|
 A c e3/2 d/ c A G F | A2 G2 z2 F G | A c !fermata!f3/2 d/ (cB) A G | %8
w: met my pret\- ty vol\- leen, Mis\- tress|Ma\- ry, And I|stopp'd up slow and said _ 'Tis a|
 A B A G (FE){/!fermata!G} !fermata!F3/2 D/ | C F !fermata!f3/2 d/ c A G F |{/A} G2 F2 z2 F G | %11
w: fine day o\- ver head, * Will you|have a lift, now, come don't be con\-|tra\- ry. Then she|
 A B A G F E F G | A B A G F2 A _A | G A c A c A c e | (e2 d2 (cd/)) z/ !fermata!A3/2 G/ | %15
w: blush'd up to her eyes, with which were|in\- no\- cent and wise, And she|said "I first must know the way you're|go\- _ ing, * And your|
 A c !fermata!f3/2 d/ c B A G | A B A G F E{/!fermata!G} !fermata!F3/2 D/ | %17
w: horse up on the road, now, can he|draw a dou\- ble load Up all the|
 C F !fermata!f3/2 _d/ c A G F |{/A} G4 F2 z2 |] %19
w: hills, for that's what I am af\- ter|know\- ing."|
V:2
!mf! (FG | Ac) (e>d) (cA=GF) | ([=B,FA]2 [B,FG]2) z2 FG | (Ac) (d>c) (AG{FG}FE) | (D2 C2) z2 (FG | %5
 Ac)!<(! e>!<)!d!>(! (cA!>)!{^GA}GF) | ([=B,FA]2 [B,FG]2) z2 (FG) | %7
 [FA][Ac]!f! !fermata!f>d (cB!>(!AG)!>)! |!p! (ABAG) (FE){/!fermata!G} !fermata!F>D | %9
 (CF) !fermata!f>d (cA{GA}GF) | [B,EG]2 [A,CF]2 z2!pp! (FG) | (ABAG) (FEFG) | (ABAG) F2 (A_A) | %13
 (G!<(!AcA) (cAce)!<)! |!f! [ce]2 d2 (cd/) z/!mp! !fermata!A>G | %15
!<(! [FA][Ac]!f! !fermata!f>!<)!d (cBAG) | (ABAG) (FE){/!fermata!G} !fermata!F>D | %17
!<(! CF!<)!!f! !fermata!f>_d [FAc][CFA] [B,EG][A,DF] | %18
 [B,DFG]2 [B,CEG]2 [A,CF]2!sfz! !^![FAcf] z |] %19
V:3
 z2 | (CA,) =B,2 C2 (_B,A,) | [D,,D,]2 [G,,,G,,]2 !^![C,,C,]2 z2 | CA, B,>A, C4 | %4
 [F,B,]2 [E,B,]2 [C,,C,]2 z2 | (CA,) =B,2 C2 _A,G, | [D,,D,]2 [G,,,G,,]2 [C,,C,]2 z2 | %7
 C2 !fermata!DE- (EDCB,) | A,4 A,2 ^G,2 | [C,A,]2 !fermata![G,,D]2 C2 (B,A,) | %10
 [C,,C,]2 [F,,F,]2 [F,,,F,,]2 z2 | [^C,A,]4 [D,A,]4 | [^C,A,]4 A,D C2 | [G,C]4 [A,,A,]4 | %14
 [D,,D,]2 [G,,G,]2 [C,,C,] z !fermata![C,,C,]2 | C2 DE- (EDCB,) | A,4 A,2 ^G,2 | %17
 [C,A,]2 !fermata![G,,_D]2"^rall. molto al fine" [C,C]2 [^C,,^C,][D,,D,] | %18
 [G,,,G,,]2 [C,,C,]2 [F,,F,]2 !^![F,,,F,,] z |] %19
V:4
 x2 | F2 [F^G]2 [FA]2 x2 | x8 | (F4 F2) x2 | x8 | F2 [F^G]2 [FA]2 x2 | x8 | x2 B2 F4 | E4 D4 | %9
 C2 [FB]2 [FA]2 x2 | x8 | E4 D4 | E4- ED D^D | E4 E4 | (^FG) =F2 [EG] z [CE]2 | x2 B2 F4 | E4 D4 | %17
 x2 [FB]2 x4 | x8 |] %19
V:5
 x2 | F,4 F,2 B,A, | x8 | (F,4 F,2) (A,G,) | G,,2 C,2 x4 | (F,4 F,2) (_A,G,) | x8 | %7
 !fermata!F,6 F,2 | ^C,4 D,2 !fermata!=B,,2 | x4 C,4 | x8 | x8 | z4 D,2 (F,^F,) | x8 | x8 | %15
 !fermata!F,6 F,2 | ^C,4 D,2 !fermata!=B,,2 | x8 | x8 |] %19
V:6
 x2 | x8 | x8 | x8 | x8 | x8 | x8 | x8 | x8 | x8 | x8 | x8 | x8 | x8 | x2 (A=B) x4 | x8 | x8 | x8 | %18
 x8 |] %19

